src/images/svg/be-square/top-performers.svg

<svg width="64" height="64" viewBox="0 0 64 64" fill="none" xmlns="http://www.w3.org/2000/svg">
<path fill-rule="evenodd" clip-rule="evenodd" d="M44.4568 13.986L44.9925 10.8623L42.723 8.65021C42.0903 8.03346 41.8669 7.12809 42.1399 6.28784C42.413 5.44734 43.1259 4.84634 44.0004 4.71934L47.1365 4.26346L48.5391 1.42159C48.9303 0.629213 49.7221 0.136963 50.6058 0.136963C51.4894 0.136963 52.2813 0.629213 52.6724 1.42159L54.075 4.26346L57.2113 4.71934C58.0858 4.84646 58.7986 5.44746 59.0716 6.28796C59.3446 7.12821 59.1213 8.03346 58.4884 8.65021L56.219 10.8623L56.7548 13.986C56.9043 14.8568 56.553 15.7206 55.838 16.24C55.4341 16.5335 54.9615 16.6826 54.4856 16.6826C54.1193 16.6826 53.7511 16.5942 53.4109 16.4155L50.6058 14.9407L47.8006 16.4155C47.0183 16.8265 46.0885 16.7593 45.3735 16.24C44.6586 15.7206 44.3073 14.8568 44.4568 13.986ZM44.2698 6.57296C44.03 6.60784 43.9463 6.78996 43.9214 6.86671C43.8964 6.94334 43.857 7.13996 44.0304 7.30896L46.4036 9.62234C46.7803 9.98971 46.9519 10.5182 46.8629 11.0365L46.3026 14.3026C46.2619 14.5413 46.4091 14.6772 46.4744 14.7247C46.5396 14.772 46.7146 14.8703 46.9289 14.7575L49.8624 13.2152C50.095 13.093 50.3503 13.0317 50.6056 13.0317C50.8609 13.0317 51.1163 13.093 51.349 13.2153L54.2824 14.7575C54.4968 14.8703 54.6718 14.7722 54.7369 14.7247C54.8021 14.6773 54.9495 14.5413 54.9086 14.3026L54.3484 11.0362C54.2596 10.5178 54.4314 9.98946 54.8076 9.62246L57.181 7.30896C57.3544 7.13996 57.3151 6.94346 57.2903 6.86671C57.2654 6.79009 57.1815 6.60784 56.9419 6.57296L53.662 6.09634C53.142 6.02096 52.6923 5.69421 52.4595 5.22271L50.9926 2.25071C50.8856 2.03359 50.6863 2.01021 50.6058 2.01021C50.5253 2.01021 50.3261 2.03359 50.2189 2.25071L48.7521 5.22259C48.5196 5.69421 48.0699 6.02084 47.5491 6.09634L44.2698 6.57296ZM26.3866 23.0369L25.8509 26.1606C25.7015 27.0315 26.0527 27.8951 26.7676 28.4145C27.1716 28.708 27.6442 28.8571 28.1201 28.8571C28.4864 28.8571 28.8545 28.7688 29.1947 28.59L31.9999 27.1153L34.805 28.59C35.5871 29.0014 36.5171 28.934 37.2322 28.4145C37.9471 27.8951 38.2984 27.0314 38.149 26.1606L37.6131 23.0369L39.8826 20.8248C40.5154 20.208 40.7387 19.3028 40.4657 18.4624C40.1927 17.6219 39.4799 17.021 38.6052 16.8939L35.4691 16.4381L34.0665 13.5961C33.6754 12.8038 32.8835 12.3115 31.9999 12.3115C31.1162 12.3115 30.3244 12.8038 29.9332 13.5961L28.5307 16.4381L25.3944 16.8939C24.52 17.021 23.8071 17.6219 23.534 18.4624C23.2609 19.3026 23.4842 20.208 24.1171 20.8249L26.3866 23.0369ZM25.3154 19.0411C25.3404 18.9644 25.4241 18.7824 25.6637 18.7475L28.9437 18.2709C29.464 18.1951 29.9134 17.8686 30.1461 17.3971L31.6129 14.4251C31.72 14.208 31.9191 14.1846 31.9997 14.1846C32.0804 14.1846 32.2795 14.208 32.3866 14.4251L33.8536 17.3975C34.0862 17.8688 34.5357 18.1951 35.0561 18.2709L38.3359 18.7475C38.5755 18.7824 38.6592 18.9646 38.6842 19.0413C38.7091 19.118 38.7484 19.3145 38.575 19.4835L36.2017 21.7969C35.8254 22.1639 35.6537 22.6923 35.7425 23.2106L36.3027 26.4771C36.3436 26.7158 36.1962 26.8518 36.131 26.8991C36.0657 26.9464 35.8907 27.0449 35.6765 26.9319L32.7431 25.3898C32.5105 25.2674 32.2551 25.2061 31.9997 25.2061C31.7445 25.2061 31.4891 25.2674 31.2564 25.3896L28.3229 26.9319C28.1084 27.0448 27.9336 26.9464 27.8685 26.8991C27.8032 26.8518 27.656 26.7158 27.6969 26.4771L28.2571 23.2106C28.346 22.6925 28.1744 22.164 27.7977 21.7968L25.4245 19.4836C25.2512 19.3145 25.2905 19.118 25.3154 19.0411ZM56.9269 57.7547H62.4391C63.2998 57.7547 64 58.4549 64 59.3157V62.302C64 63.1627 63.2998 63.8629 62.4391 63.8629H1.56088C0.70025 63.8629 0 63.1627 0 62.302V59.3157C0 58.4549 0.70025 57.7547 1.56088 57.7548H7.07325V53.2125C7.07325 52.6953 7.4925 52.276 8.00975 52.276C8.527 52.276 8.94625 52.6953 8.94625 53.2125V57.7548H17.842V44.9815H8.94625V48.8574C8.94625 49.3747 8.527 49.7939 8.00975 49.7939C7.4925 49.7939 7.07325 49.3747 7.07325 48.8574V44.6693C7.07325 43.8087 7.7735 43.1084 8.63412 43.1084H18.1542C19.0149 43.1084 19.7151 43.8087 19.7151 44.6693V57.7547H25.6791V34.4264C25.6791 33.5658 26.3794 32.8655 27.24 32.8655H36.7603C37.6209 32.8655 38.3211 33.5658 38.3211 34.4264V57.7548H44.285V22.5697C44.285 21.709 44.9852 21.0088 45.8459 21.0088H47.4009C47.9181 21.0088 48.3374 21.428 48.3374 21.9453C48.3374 22.4625 47.9181 22.8818 47.4009 22.8818H46.158V57.7547H55.0539V22.8818H51.8046C51.2874 22.8818 50.8681 22.4625 50.8681 21.9453C50.8681 21.428 51.2874 21.0088 51.8046 21.0088H55.366C56.2266 21.0088 56.9269 21.709 56.9269 22.5697V57.7547ZM36.448 34.7387H27.5521V57.7548H36.448V34.7387ZM1.87312 61.9899H62.1269H62.127V59.6279H55.9904H45.2215H37.3846H26.6157H18.7787H8.00988H1.87312V61.9899ZM7.24499 37.5552L7.78074 34.4316L5.51137 32.2193C4.87862 31.6027 4.65524 30.6976 4.92824 29.8571C5.20137 29.0164 5.91412 28.4156 6.78862 28.2884L9.92499 27.8327L11.3275 24.9908C11.7185 24.1984 12.5104 23.7062 13.394 23.7062C14.2777 23.7062 15.0696 24.1983 15.4607 24.9908L16.8632 27.8327L19.9995 28.2884C20.874 28.4156 21.5867 29.0166 21.8599 29.8571C22.1329 30.6974 21.9094 31.6027 21.2766 32.2194L19.0072 34.4316L19.543 37.5552C19.6924 38.4261 19.341 39.2898 18.6261 39.8093C17.911 40.3286 16.9811 40.3958 16.1991 39.9847L13.394 38.5099L10.5889 39.9847C10.2486 40.1634 9.88049 40.2519 9.51424 40.2519C9.03849 40.2519 8.56587 40.1027 8.16187 39.8092C7.44699 39.2898 7.09562 38.4262 7.24499 37.5552ZM7.05799 30.1421C6.81837 30.1769 6.73462 30.3591 6.70962 30.4358C6.68462 30.5126 6.64537 30.7092 6.81874 30.8782L9.19199 33.1914C9.56837 33.5583 9.74024 34.0869 9.65124 34.6053L9.09099 37.8717C9.05011 38.1103 9.19749 38.2463 9.26274 38.2938C9.32799 38.3412 9.50274 38.4393 9.71712 38.3266L12.6506 36.7843C12.8834 36.6621 13.1387 36.6008 13.394 36.6008C13.6492 36.6008 13.9046 36.6619 14.1374 36.7843L17.0709 38.3266C17.2849 38.4394 17.4599 38.3412 17.5252 38.2938C17.5905 38.2464 17.7379 38.1103 17.697 37.8717L17.1367 34.6052C17.0477 34.0869 17.2195 33.5582 17.5962 33.1913L19.9692 30.8781C20.1427 30.7092 20.1035 30.5126 20.0785 30.4358C20.0535 30.3591 19.9697 30.1769 19.7301 30.1421L16.4504 29.6654C15.9301 29.5899 15.4805 29.2632 15.2477 28.7916L13.781 25.8198C13.6737 25.6026 13.4746 25.5792 13.394 25.5792C13.3134 25.5792 13.1142 25.6027 13.0071 25.8198L11.5404 28.7917C11.3075 29.2633 10.8579 29.5901 10.3375 29.6654L7.05799 30.1421Z" fill="#FF444F"/>
</svg>

<svg xmlns="http://www.w3.org/2000/svg" width="64" height="64" fill="none"  xmlns:v="https://vecta.io/nano"><path fill-rule="evenodd" d="M44.457 13.986l.536-3.124-2.27-2.212a2.29 2.29 0 0 1-.583-2.362A2.29 2.29 0 0 1 44 4.719l3.136-.456 1.403-2.842A2.29 2.29 0 0 1 50.606.137a2.29 2.29 0 0 1 2.067 1.285l1.403 2.842 3.136.456a2.29 2.29 0 0 1 1.86 1.569 2.29 2.29 0 0 1-.583 2.362l-2.269 2.212.536 3.124a2.29 2.29 0 0 1-.917 2.254c-.404.294-.876.443-1.352.443a2.31 2.31 0 0 1-1.075-.267l-2.805-1.475-2.805 1.475a2.29 2.29 0 0 1-3.344-2.43zm-.187-7.413a.42.42 0 0 0-.348.294.42.42 0 0 0 .109.442l2.373 2.313c.377.367.548.896.459 1.414l-.56 3.266a.42.42 0 0 0 .172.422.42.42 0 0 0 .454.033l2.934-1.542c.233-.122.488-.183.743-.183s.511.061.743.184l2.933 1.542a.42.42 0 0 0 .454-.033.42.42 0 0 0 .172-.422l-.56-3.266a1.6 1.6 0 0 1 .459-1.414l2.373-2.314a.42.42 0 0 0 .109-.442.42.42 0 0 0-.348-.294l-3.28-.477c-.52-.075-.97-.402-1.203-.874l-1.467-2.972a.42.42 0 0 0-.387-.241.42.42 0 0 0-.387.241l-1.467 2.972c-.233.472-.682.798-1.203.874l-3.279.477zM26.387 23.037l-.536 3.124a2.29 2.29 0 0 0 .917 2.254c.404.293.877.443 1.352.443.366 0 .734-.088 1.075-.267L32 27.115l2.805 1.475a2.29 2.29 0 0 0 3.344-2.429l-.536-3.124 2.269-2.212a2.29 2.29 0 0 0-1.277-3.931l-3.136-.456-1.403-2.842A2.29 2.29 0 0 0 32 12.312a2.29 2.29 0 0 0-2.067 1.285l-1.402 2.842-3.136.456a2.29 2.29 0 0 0-1.277 3.931l2.27 2.212zm-1.071-3.996a.42.42 0 0 1 .348-.294l3.28-.477c.52-.076.97-.402 1.202-.874l1.467-2.972a.42.42 0 0 1 .387-.241.42.42 0 0 1 .387.241l1.467 2.972c.233.471.682.798 1.203.873l3.28.477a.42.42 0 0 1 .348.294.42.42 0 0 1-.109.442l-2.373 2.313a1.6 1.6 0 0 0-.459 1.414l.56 3.267a.42.42 0 0 1-.172.422.42.42 0 0 1-.455.033l-2.933-1.542c-.233-.122-.488-.184-.743-.184a1.6 1.6 0 0 0-.743.184l-2.933 1.542a.42.42 0 0 1-.454-.033.42.42 0 0 1-.172-.422l.56-3.267c.089-.518-.083-1.047-.459-1.414l-2.373-2.313a.42.42 0 0 1-.109-.442zm31.612 38.714h5.512c.861 0 1.561.7 1.561 1.561v2.986c0 .861-.7 1.561-1.561 1.561H1.561C.7 63.863 0 63.163 0 62.302v-2.986c0-.861.7-1.561 1.561-1.561h5.512v-4.542c0-.517.419-.936.937-.936s.936.419.936.936v4.542h8.896V44.982H8.946v3.876c0 .517-.419.937-.936.937s-.937-.419-.937-.937v-4.188c0-.861.7-1.561 1.561-1.561h9.52c.861 0 1.561.7 1.561 1.561v13.085h5.964V34.426c0-.861.7-1.561 1.561-1.561h9.52c.861 0 1.561.7 1.561 1.561v23.328h5.964V22.57c0-.861.7-1.561 1.561-1.561h1.555c.517 0 .937.419.937.936s-.419.936-.937.936h-1.243v34.873h8.896V22.882h-3.249c-.517 0-.937-.419-.937-.936s.419-.936.937-.936h3.561c.861 0 1.561.7 1.561 1.561v35.185zM36.448 34.739h-8.896v23.016h8.896V34.739zM1.873 61.99h60.254v-2.362H1.873v2.362zm5.372-24.435l.536-3.124-2.269-2.212a2.29 2.29 0 0 1 1.277-3.931l3.136-.456 1.403-2.842a2.29 2.29 0 0 1 2.066-1.285 2.29 2.29 0 0 1 2.067 1.285l1.402 2.842 3.136.456a2.29 2.29 0 0 1 1.277 3.931l-2.269 2.212.536 3.124a2.29 2.29 0 0 1-3.344 2.429l-2.805-1.475-2.805 1.475a2.31 2.31 0 0 1-1.075.267c-.476 0-.948-.149-1.352-.443a2.29 2.29 0 0 1-.917-2.254zm-.187-7.413a.42.42 0 0 0-.348.294.42.42 0 0 0 .109.442l2.373 2.313c.376.367.548.895.459 1.414l-.56 3.266a.42.42 0 0 0 .172.422.42.42 0 0 0 .454.033l2.933-1.542a1.6 1.6 0 0 1 .743-.184c.255 0 .511.061.743.184l2.934 1.542a.42.42 0 0 0 .454-.033.42.42 0 0 0 .172-.422l-.56-3.266c-.089-.518.083-1.047.459-1.414l2.373-2.313a.42.42 0 0 0 .109-.442.42.42 0 0 0-.348-.294l-3.28-.477c-.52-.076-.97-.402-1.203-.874l-1.467-2.972a.42.42 0 0 0-.387-.241.42.42 0 0 0-.387.241l-1.467 2.972c-.233.472-.682.798-1.203.874l-3.28.477z" fill="#ff444f"/></svg>
